svg/load_factor.svg

<svg width="24" height="24" viewBox="0 0 24 24" xmlns="http://www.w3.org/2000/svg">
<path d="M14.1206 2.22375L11.2005 7.47981L8.59848 5.39816L6.62628 9.99997H8.80221L9.40144 8.60178L11.1492 9.99997H12.0884L13.8793 6.77619L15.247 9.99997H17.4195L14.1206 2.22375Z" />
<path d="M19.965 16H17.7925L20.0794 21.3906L21.9205 20.6095L19.965 16Z" />
<path d="M6.2308 16H4.05486L2.08081 20.6061L3.9191 21.3939L6.2308 16Z" />
<path d="M2.99991 12H4.99991V14H2.99991V12Z" />
<path d="M6.99991 12H8.99991V14H6.99991V12Z" />
<path d="M10.9999 12H12.9999V14H10.9999V12Z" />
<path d="M14.9999 12H16.9999V14H14.9999V12Z" />
<path d="M18.9999 12H20.9999V14H18.9999V12Z" />
</svg>

<svg width="24" height="24" viewBox="0 0 24 24" xmlns="http://www.w3.org/2000/svg"><path d="M14.12 2.224L11.2 7.48 8.598 5.398 6.626 10h2.176l.6-1.398L11.148 10h.94l1.79-3.224L15.247 10h2.172l-3.298-7.776zM19.965 16h-2.172l2.286 5.39 1.841-.78L19.965 16zM6.23 16H4.056L2.08 20.606l1.838.788L6.231 16zM3 12h2v2H3v-2zM7 12h2v2H7v-2zM11 12h2v2h-2v-2zM15 12h2v2h-2v-2zM19 12h2v2h-2v-2z"/></svg>
